X:60
T:Curly Headed Ploughboy
M:4/4
L:1/8
S:Trad
R:
K:G
dc|:B2d2G2B2|E4D2G2|FGAB c2 B2|B4A2dc|
|B2d2G2B2|E4D2G2|FGAB c2F2|1G6 dc:|2G6 d2|
K:D
|:c2c2 cABc|d4d2d2|c2c2cBAc|d4d4|
|c2c2cABc|d2A2B2G2|F2A2 GF E2|1D6 d2:|2D6 dc|
